icons/globe-17.svg

<svg width="16" height="17" viewBox="0 0 16 17" fill="none" xmlns="http://www.w3.org/2000/svg">
<path fill-rule="evenodd" clip-rule="evenodd" d="M3.1571 7.60388H5.20699C5.31516 6.04828 5.85617 4.78672 6.39266 3.89257C6.48132 3.7448 6.57003 3.60676 6.6569 3.47875C4.7919 4.01211 3.38406 5.62839 3.1571 7.60388ZM5.207 8.72888H3.1571C3.38406 10.7044 4.79193 12.3207 6.65697 12.854C6.57008 12.726 6.48134 12.5879 6.39266 12.4401C5.85618 11.546 5.31517 10.2845 5.207 8.72888ZM6.3352 8.72888H9.66477C9.5594 10.0305 9.10321 11.0937 8.64266 11.8613C8.41297 12.2441 8.18374 12.5507 8 12.773C7.81626 12.5507 7.58703 12.2441 7.35734 11.8613C6.89679 11.0937 6.44059 10.0305 6.3352 8.72888ZM9.66485 7.60388H6.33519C6.44058 6.30223 6.89679 5.23896 7.35734 4.47137C7.58703 4.08856 7.81626 3.78199 8 3.55966C8.18374 3.78199 8.41297 4.08856 8.64266 4.47137C9.10321 5.23896 9.5594 6.30223 9.66485 7.60388ZM10.793 8.72888C10.6848 10.2845 10.1438 11.546 9.60732 12.4401C9.51867 12.5879 9.42992 12.726 9.34303 12.854C11.2081 12.3207 12.6159 10.7044 12.8429 8.72888H10.793ZM12.8429 7.60388H10.793C10.6848 6.04828 10.1438 4.78672 9.60732 3.89257C9.51867 3.7448 9.42997 3.60676 9.3431 3.47874C11.2081 4.0121 12.6159 5.62839 12.8429 7.60388ZM8 2.16638C4.68629 2.16638 2 4.85267 2 8.16638C2 11.4801 4.68629 14.1664 8 14.1664C11.3137 14.1664 14 11.4801 14 8.16638C14 4.85267 11.3137 2.16638 8 2.16638Z" fill="#272431"/>
</svg>

<svg xmlns="http://www.w3.org/2000/svg" width="16" height="17" viewBox="0 0 16 17"><path fill-rule="evenodd" d="M3.157 7.604h2.05a8.344 8.344 0 011.186-3.711 8.8 8.8 0 01.264-.414 4.88 4.88 0 00-3.5 4.125zm2.05 1.125h-2.05a4.88 4.88 0 003.5 4.125 8.783 8.783 0 01-.264-.414 8.343 8.343 0 01-1.186-3.71zm1.128 0h3.33a7.227 7.227 0 01-1.022 3.132c-.23.383-.46.69-.643.912a7.478 7.478 0 01-.643-.912A7.227 7.227 0 016.335 8.73zm3.33-1.125h-3.33A7.228 7.228 0 017.357 4.47c.23-.382.46-.689.643-.911.184.222.413.529.643.911.46.768.916 1.831 1.022 3.133zm1.128 1.125a8.344 8.344 0 01-1.186 3.711 8.76 8.76 0 01-.264.414 4.88 4.88 0 003.5-4.125h-2.05zm2.05-1.125h-2.05a8.344 8.344 0 00-1.186-3.711 8.799 8.799 0 00-.264-.414 4.88 4.88 0 013.5 4.125zM8 2.166a6 6 0 100 12 6 6 0 000-12z"/></svg>
